X: 5
T: Here Comes the Sun (3:09) - Clarinet
C: The Beatles
Z: Digero of Landroval
M: 4/4
Q: 127
K: C maj

% Bar 1
z8  |  z8  |  z8  |  z8  |  z8  |  z8  |  z8  |  z8  |  z8  |  z8  |  
% Bar 11
z2 +mp+ [f^g] [=g2^d2] +p+ ^g2 +mf+ [=d-f/] z/  |  d8-  |  
d/ z [^g3/2^d3/2] [f2^c2] [d3-=c3-]  |  [c^d] z7  |  z8  |  z8  |  z8  |  z8  |  z8  |  
z2 +mp+ ^g +mf+ [^d/c] [f3/2z/] +mp+ ^c +mf+ [g3-d3-]  |  
% Bar 21
[^d3/2^g3/2] z13/2  |  z8  |  z8  |  z3/2 +mp+ [^d3/2z/] ^g +mf+ [^c2=g2] ^g2 [=c-d/] z/  |  
c2 +mp+ ^d +mf+ c +p+ ^c +mf+ d z2  |  
z2 [f^g] +mp+ [=g2^d5/2] ^g2 +mf+ [f/=d-] z/  |  d15/2 z/  |  
z +mp+ [^d2z/] [^g2z3/2] +mf+ [^c2f2] [d3-=c3-]  |  [c/^d] z15/2  |  z8  |  
% Bar 31
z8  |  z8  |  z8  |  z8  |  z8  |  z8  |  z2 +mp+ ^g +mf+ [^d/c] [f3/2z/] +mp+ ^c +mf+ [g3-d3-]  |  
[^d3/2^g3/2] z13/2  |  z8  |  z8  |  
% Bar 41
z3/2 +mp+ [^d3/2z/] ^g +mf+ [^c2=g2] ^g2 [=c-d/] z/  |  
c2 +mp+ ^d +mf+ c +p+ ^c +mf+ d z2  |  
z2 [f^g] +mp+ [=g2^d5/2] ^g2 +mf+ [f/=d-] z/  |  d15/2 z/  |  
z +mp+ [^d2z/] [^g2z3/2] +mf+ [^c2f2] [d3-=c3-]  |  [c/^d] z15/2  |  z8  |  z8  |  z8  |  z8  |  
% Bar 51
z8  |  z8  |  z4 +p+ ^C5/2 z/ +mp+ C-  |  
^C5/2 +mf+ ^G,/ +f+ [=C/^D/] z/ +mf+ [D/C/] [F/^C/] +f+ [D3-=C3-]  |  [C4^D4] z4  |  
z6 +mp+ ^C2-  |  
^C/ z/ +mf+ [C7/2z3] +mp+ ^G, +mf+ [=C/^D/] z/ [C/D/] [^C/F/] [=C-D-]  |  
[C6^D13/2] z2  |  z8  |  +mp+ ^C5/2 z/ +mf+ [C7/2z3] [^G,=C] [C/^D/] z/  |  
% Bar 61
[^D/C/] [F/^C/] +f+ [D7=C7]  |  z8  |  z2 +mf+ ^C5/2 z/ C3  |  
[C^G,] [^D/C/] z/ [C/D/] [F/^C/] [D5-=C5-]  |  [C2^D2] z6  |  
z4 +mp+ ^C5/2 z/ +mf+ C-  |  
[^C5/2z2] [^G,=C] [C/^D/] z/ [D/C/] [F/^C/] +f+ [D3-=C3-]  |  [C4^D9/2] z4  |  z8  |  z8  |  
% Bar 71
z8  |  z8  |  z8  |  z8  |  z8  |  z6 +mp+ ^g +mf+ [^d/c] f/-  |  
+mp+ [^cf] +mf+ [^g9/2^d9/2] z5/2  |  z8  |  z8  |  
z11/2 +mp+ [^d3/2z/] ^g +mf+ [^c-=g-]  |  
% Bar 81
[^cg] ^g2 [=c3^d/] z5/2 +mp+ d +mf+ c  |  +p+ ^c +mf+ ^d z4 [f^g] +mp+ [=g-d-]  |  
[^d3/2g] ^g2 +mf+ [f/=d5-] z9/2  |  d7/2 z3/2 +mp+ [^d2z/] [^g2z3/2] +mf+ [^c-f-]  |  
[^cf] [^d4=c7/2] z7/2  |  z8  |  z11/2 +mp+ [^d3/2z/] ^g +mf+ [^c-=g-]  |  
[^cg] ^g2 [=c3^d/] z5/2 +mp+ d +mf+ c  |  +p+ ^c +mf+ ^d z4 [f^g] +mp+ [=g-d-]  |  
[^d3/2g] ^g2 +mf+ [f/=d5-] z9/2  |  
% Bar 91
d7/2 z3/2 +mp+ [^d2z/] [^g2z3/2] +mf+ [^c-f-]  |  [^cf] [^d4=c7/2] z7/2  |  z8  |  
z5 +mp+ [^d2z/] [^g2z3/2] +mf+ [^c-f-]  |  [^cf] [^d4=c7/2] z7/2  |  z8  |  z8  |  z8  |  z8  |  
z8  |  z8  |]

